Newaita/actions/16/mail-tagged.svg

<?xml version="1.0" encoding="UTF-8"?>
<svg xmlns="http://www.w3.org/2000/svg" xmlns:xlink="http://www.w3.org/1999/xlink" width="16pt" height="16pt" viewBox="0 0 16 16" version="1.1">
<g id="surface1">
<path style=" stroke:none;fill-rule:nonzero;fill:rgb(25.882354%,25.882354%,25.882354%);fill-opacity:1;" d="M 1.984375 2.109375 C 1.25 2.109375 0.660156 2.699219 0.660156 3.433594 L 0.660156 13.023438 C 0.660156 13.757812 1.25 14.347656 1.984375 14.347656 L 12.074219 14.347656 L 11.082031 13.355469 L 2.316406 13.355469 C 1.949219 13.355469 1.652344 13.058594 1.652344 12.695312 L 1.652344 3.867188 L 7.558594 9.152344 C 7.773438 9.34375 8.101562 9.34375 8.320312 9.152344 L 14.222656 3.867188 L 14.222656 10.214844 L 15.214844 11.207031 L 15.214844 3.433594 C 15.214844 2.699219 14.625 2.109375 13.890625 2.109375 Z M 2.511719 3.101562 L 13.367188 3.101562 L 7.9375 7.957031 Z M 2.511719 3.101562 "/>
<path style=" stroke:none;fill-rule:nonzero;fill:rgb(92.54902%,25.098041%,47.843137%);fill-opacity:1;" d="M 10.144531 9.277344 C 9.496094 9.925781 9.496094 10.96875 10.144531 11.617188 L 12.015625 13.488281 L 12.71875 14.1875 C 12.976562 14.449219 13.394531 14.449219 13.652344 14.1875 L 14.355469 13.488281 L 15.054688 12.785156 C 15.316406 12.527344 15.316406 12.109375 15.054688 11.851562 L 14.355469 11.148438 L 12.484375 9.277344 C 11.835938 8.628906 10.792969 8.628906 10.144531 9.277344 Z M 11.082031 10.214844 C 11.210938 10.082031 11.402344 10.070312 11.515625 10.179688 L 11.582031 10.246094 C 11.691406 10.359375 11.679688 10.550781 11.546875 10.679688 C 11.417969 10.8125 11.226562 10.824219 11.113281 10.714844 L 11.046875 10.648438 C 10.9375 10.535156 10.949219 10.34375 11.082031 10.214844 Z M 11.082031 10.214844 "/>
</g>
</svg>

<svg xmlns="http://www.w3.org/2000/svg" width="16pt" height="16pt" viewBox="0 0 16 16"><path d="M1.984 2.11A1.32 1.32 0 0 0 .66 3.433v9.59c0 .734.59 1.324 1.324 1.324h10.09l-.992-.993H2.316a.663.663 0 0 1-.664-.66V3.867L7.56 9.152a.577.577 0 0 0 .761 0l5.903-5.285v6.348l.992.992V3.434a1.32 1.32 0 0 0-1.324-1.325zm.528.992h10.855l-5.43 4.855zm0 0" fill="#424242"/><path d="M10.145 9.277a1.65 1.65 0 0 0 0 2.34l1.87 1.871.704.7a.653.653 0 0 0 .933 0l.703-.7.7-.703a.653.653 0 0 0 0-.933l-.7-.704-1.87-1.87a1.65 1.65 0 0 0-2.34 0zm.937.938c.129-.133.32-.145.434-.035l.066.066c.11.113.098.305-.035.434-.129.133-.32.144-.434.035l-.066-.067c-.11-.113-.098-.304.035-.433zm0 0" fill="#ec407a"/></svg>
